X: 179
T: Zhai cai Xiaodiao
L: 1/16
M: 2/4
K: Bb
c c2 c c2 B2 [I:setbarnb 1]| 
d d d B c d B2 | 
d c d B c2 d2 | 
d c d f G B G2 | 
B2 G B c2 G B | 
c d G2 B2 G2 | 
d d d Bc4 | 
B B c GG4 | 
d c d c d G B2 | 
B G B GF4 | 
B G D F G G B G | 
B B D B D B G B | 
D F B G B D G B | 
Z2 | 
d8 | 
B8 | 
G2 G B c z G z | 
F2z6 |]

@@@ Tune index: 8847
